X:1
T:Souvenir
T:Souvenir For violin and piano 
T:František Alois Drdla (1869-1944) 
%%score ( 1 2 ) { ( 3 5 ) | ( 4 6 ) }
L:1/8
Q:1/4=93
M:3/4
K:D
V:1 treble nm="Violin" snm="Vln."
V:2 treble 
V:3 treble nm="Piano" snm="Pno."
V:5 treble 
V:4 bass 
V:6 bass 
V:1
"^Quietly, not too quick""^con sordino" z6 | z6 | z6 |"_sul A" z2!<(! (3(Adf a>)!<)!!p!!mp!(b | %4
 f6-) | f2!<(! (3(Adf a>)(c'!<)! |!p!!mp! b6-) | b2!mf!!<(! (3(Adf a>)(!-(!d'!<)! | %8
 !-)!e'4-) e'>b | d'4- d'>(!-(!c' | !-)!f6-) | f2!p!!mp!!<(! (3(Adf a>)!<)!!p!!mp!(b | f6-) | %13
 f2!<(! (3(Adf a>)!<)!!p!!mp!(c' | b6-) | b2!mf!!<(! (3(Adf a>)(d'!<)! |!f! g'4) (3(f'e'e) | %17
 c'2- (3c'!>(!(^de (3gBA) | d6-!>)! | d2!<(! (3(Adf a>)!<)!!p!!mp!(b | f6-) | %21
 f2!<(! (3(Adf a>)!<)!(c' |!mp! b6-) | b2!mf!!<(! (3(Adf a>)(!-(!d'!<)! |!f! !-)!e'4-) e'>b | %25
 d'4- d'>(!-(!c' |!>(! !-)!f6-)!>)! | f2!p!!mp!!<(! (3(Adf a>)!<)!!mp!(b | f6-) | %29
 f2!p!!mp!!<(! (3(Adf a>)!<)!!p!!mp!(c' | b6-) | b2!mf!!<(! (3(Adf a>)(d'!<)! | %32
!f! g'4)!>(! (3(f'e'e) | c'2- (3c'(^de (3gBA)!>)! | d6- | d2 z4 || %36
[K:Bb][Q:1/4=80]"^Livelier"[Q:1/4=98]!f! v[dd']6- | [d-d']([d-c'] [db][B-=e] [B-f][Bg]) | %38
 !tenuto![^ca]6 | !tenuto![dg]6 |!>(! !tenuto![Af]6!>)! |!mf!!>(! c4 d2!>)! |!mp! [DB]6- | %43
 [DB]2 z4 | (b6- | bag^cd=e) | f6 | =e6 |!>(! [=Ed]6 | [=Ec]6 | [A,F]6-!>)! | [A,F]2 z4 | %52
!pp!!mp! v[dd']6- |!<(! [d-d']([d-c'] [db][B-=e] [B-f][Bg]) | !tenuto![^ca]6 | !tenuto![dg]6!<)! | %56
!>(! !tenuto![Af]6 |!mf! c4 d2 |!mp! [DB]6-!>)! | [DB]2 z4 | b6- | b(ag^fga) | b6- | b(agabc') | %64
"_animato poco a poco" d'6- | d'(c'bac'b) |"_cresc." d'6- | d'(c'=bc'd'e') | g'6- | %69
 g'(f'e'd'e'f') | g'6- | g'(^f'=e'^d'e'f') | (g'=b')(b'g')(g'^f') | (^f'=e')(e'=b)(d'^c') | %74
 (^c'=b)(ba)(ag) | (g=e)(e^c)(c=B) | A>(=B !open!a2) z2 |"_cresc." =B>(^c !open!a2) z2 | %78
!mf! !tenuto!^c!tenuto!=e !tenuto!=b2 z2 | %79
!f![Q:1/4=80] A[Q:1/4=50][g=b] !fermata![ga]3!p![Q:1/4=40] [G^c] || %80
[K:D][Q:1/4=80]"^tempo I"[Q:1/4=93] [Fd]6- | [Fd]2 (3(Adf a>)!mp!(b | f6-) | f2 (3(Adf a>)(c' | %84
 b6-) | b2!<(! (3(Adf a>)(d'!<)! |!mf! Pe'4-) e'>b | d'4-!>(! d'>(c' | f6-) | %89
 f2!>)!!pp!!mp!!<(! (3(Adf a>)!<)!!p!!mp!(b | f6-) | f2!mp!!<(! (3(Adf a>)!<)!!p!!mp!(c' | b6-) | %93
 b2!mf!!<(! (3(Adf a>)(d'!<)! | g'4) (3(f'e'e) | c'2- (3c'!>(!(^de (3gBA) | d6-!>)! | %97
[Q:1/4=160]"^Meno"[Q:1/4=93] d2!p!!<(! (3([DA][Fd][Ae] [df]>[gb])!<)! |!f! [gb]6- | %99
 [gb]2!p!!<(! (3([DA][Fd][Ae]!<)!!mf!!<(! [df]>[=f_b])!<)! |!f! [=f_b]6- | %101
 [fb]2!p!!mp!!<(! (3(u[DA][^Fd][Ae] [^fa]>[fd'])!<)! | [af']6- |"^pizz." [af']6- | %104
 !fermata![af']6 |] %105
V:2
 x6 | x6 | x6 | x6 | x6 | x6 | x6 | x6 | x6 | x6 | x6 | x6 | x6 | x6 | x6 | x6 | x6 | x6 | x6 | %19
 x6 | x6 | x6 | x6 | x6 | x6 | x6 | x6 | x6 | x6 | x6 | x6 | x6 | x6 | x6 | x6 | x6 ||[K:Bb] x6 | %37
 x6 | x6 | x6 | x6 | E6 | x6 | x6 | x6 | x6 | x6 | x6 | x6 | x6 | x6 | x6 | x6 | x6 | x6 | x6 | %56
 x6 | E6 | x6 | x6 | x6 | x6 | x6 | x6 | x6 | x6 | x6 | x6 | x6 | x6 | x6 | x6 | x6 | x6 | x6 | %75
 x6 | x6 | x6 | x6 | x6 ||[K:D] x6 | x6 | x6 | x6 | x6 | x6 | x6 | x6 | x6 | x6 | x6 | x6 | x6 | %93
 x6 | x6 | x6 | x6 | x6 | x6 | x6 | x6 | x6 | x6 | !plus!D2!>(! z4 | !plus!D2!>)! z4 |] %105
V:3
!p!!mp!!ped! z2!ped!{/[DF]} !>!A4!ped-up! |!ped![I:staff +1]{/[F,A,]} !>!D6!ped!!ped-up! | %2
!ped![I:staff -1] z2!ped!{/[DF]} B4!ped-up! |!ped!{/[DF]} A6!ped!!ped-up! | %4
"^a tempo"!ped! z2!ped!{/[DF]} !>!A4!ped-up! |!ped![I:staff +1]{/[F,A,]} !>!D6!ped!!ped-up! | %6
!ped![I:staff -1] z2!ped!{/[DF]} B4!ped-up! |!ped!{/[A,D]} F6!ped!!ped-up! | %8
!ped! z2!ped! E4!ped-up! |!ped! (B4!ped! A2)!ped-up! | [DFA]2 (3(afd B>)(c | A4) z2 | %12
!p!!mp!!ped! z2!ped!{/[DF]} !>!A4!ped-up! |!ped![I:staff +1]{/[F,A,]} !>!D6!ped!!ped-up! | %14
!ped![I:staff -1] z2!ped!{/[DF]} B4!ped-up! |!ped!{/[A,D]} F6!ped!!ped-up! | %16
!ped! E2!ped! (3(GA_B) [B,C]2!ped-up! |"^rit."!>(!!ped! ([G,A,E]4!ped! [G,A,C]2)!>)!!ped-up! | %18
"^a tempo"!ped! [F,A,D]2!ped! (3(A,DF A>)(B!ped-up! |!ped! d4)!ped! z2!ped-up! | %20
!pp!!mp!!ped! z2!ped! (3(A,DF .A>)B!ped-up! | F6-!ped!!ped-up! | %22
!ped! F2!ped!!<(! (3(A,DF .A>)(c!ped-up! | (B2)!ped! A2) F2!<)!!ped-up! | %24
!ped! !>![^G,DE]2!ped! (3(DE^G) [DB]2!ped-up! |!ped! [CB]2!ped! (3(CEG-) B>A-!ped-up! | %26
!>(!!ped! A2 (3(afd B>)(c!>)!!ped-up! |!ped! A4) z2!ped-up! | %28
!ped! z2!ped!!p!!mp! (3(A,DF A>)(B!ped-up! | F6-)!ped!!ped-up! | %30
!ped! F2!ped!!<(! (3((A,DF) A>)(c!ped-up! | (B2)!ped! A2) F2!<)!!ped-up! | %32
"^rit."!mf!!ped! !>!E2!ped! (3(GA_B) C2!ped-up! | %33
"^a tempo"!>(!!ped! ([G,A,E]4!ped! [G,A,C]2)!>)!!ped-up! |!p!!mp!!ped! [F,A,D]6-!ped!!ped-up! | %35
!ped! [F,A,D]2!ped! z4!ped-up! || %36
[K:Bb]!mf!!<(!!ped! z!ped! .[FBd].[FBd].[GBd]!<)!!>(!.[GBd].[_GBd]!ped-up!!>)!!ped-up! | %37
!ped! ([Fd]3!ped! [=E^c]) [Fd]2!ped-up! |!ped! z2!ped! (=EG[^CE]^c)!ped-up! | %39
!ped!z2!ped!(FB[DF]d)!ped-up! |!ped! z2!ped!!>(! (EFCA)!ped-up!!>)!!ped-up! | %41
!ped! z!ped! A ([Ac]egf)!ped-up! |!pp!!mp!!ped! !>![df]6!ped!!ped-up! | %43
!ped! .[fb]!ped!.[df].[df].[Bd] .[Bd]2!ped-up! | %44
!ped! z!ped!!<(! .[DFB].[DFB].[^CGA]!<)!!>(!.[CGA].[DGB]!ped-up!!>)!!ped-up! | %45
!mp!!ped! [DGBd]3!ped! (=EFG)!ped-up! |!ped! [FA]2!ped!!>(! (DFA,A)!ped-up!!>)!!ped-up! | %47
!ped! z2!ped!!>(! (=EGB,B)!ped-up!!>)!!ped-up! |!ped! z2!ped! (DGB,B)!ped-up! | %49
!ped! z2!ped!!>(! (B,GC=E)!ped-up! |!ped! [A,CF]2!ped! z (A,CF!>)!!ped-up! | %51
"^rit."!ped! A!ped!c!>(!e=e!fermata!gf)!ped-up!!>)!!ped-up! | %52
!pp!!mp!"^a tempo"!ped! z!ped!!<(! .[FBd].[FBd].[GBd]!<)!!>(!.[GBd].[_GBd]!ped-up!!>)!!ped-up! | %53
!ped! ([Fd]3!ped!!<(! [=E^c]) [Fd]2!ped-up! |!ped! z2!ped! (=EG[^CE]^c)!ped-up! | %55
!ped! z2!ped! (FB[DF]d)!<)!!ped-up! |!ped! z2!ped!!>(! (EFCA)!ped-up! | %57
!ped! z!ped! A ([Ac]egf)!>)!!ped-up! |!pp!!mp!!ped! !>![df]6!ped!!ped-up! | %59
!ped! .[fb]!ped!.[df].[df].[Bd] .[Bd]2!ped-up! |!ped! z!ped! (B,EB,GE!ped-up! | %61
!ped! B2)!ped! z4!ped-up! |!ped! z!ped! (D[GB]D[GB]D!ped-up! |!ped! [Bd]2)!ped! z4!ped-up! | %64
"_animato poco a poco"!ped! z!ped! (DFDBD!ped-up! |!ped! [Bd]2)!ped! z4!ped-up! | %66
!ped! z!ped!"_cresc." (^F[Acd]F[Acd]F!ped-up! |!ped! d2)!ped! z4!ped-up! | %68
!ped! z!ped! (AcFeA)!ped-up! |!ped! [ceg]2!ped! z4!ped-up! | %70
!ped! z!ped!"_cresc." (B_dB=eB!ped-up! |!ped! [B_de=g]2)!ped! z4!ped-up! | %72
!ped! [A^c=eg]3!ped! !>![A,^C=EG] !>![A,CEG]2-!ped-up! |!ped! [A,CEG]6!ped!!ped-up! | %74
!ped! z6!ped!!ped-up! |!ped! z6!ped!!ped-up! |!ped! z4!ped!{/^G} .A.A,!ped-up! | %77
!ped! z4!ped!"_cresc."{/^G} .A.A,!ped-up! |!ped! z4!ped!{/^A} .=B.A,!ped-up! | %79
"^rit."!ped! z4!ped!!p!!mp! (3(!tenuto![=B,^CG]!tenuto![A,=C^F]!tenuto!!fermata![G,C=E])!ped-up! || %80
[K:D]!ped! [F,A,D]6-!ped!!ped-up! |!ped! [F,A,D]2!ped! z4!ped-up! | %82
!ped! z2!ped!{/[DF]} !>!A4!ped-up! |!ped![I:staff +1]{/[F,A,]} !>!D6!ped!!ped-up! | %84
!ped![I:staff -1] z2!ped!{/[DF]} B4!ped-up! |!ped!{/[A,D]} F6!ped!!ped-up! | %86
!ped! z2!ped!!<(! E4!ped-up!!<)!!ped-up! |!ped!!>(! (B4!ped! A2)!ped-up!!>)!!ped-up! | %88
 [DFA]2!>(! (3(afd B>)(c!>)! | A4) z2 |!ped! z2!ped!!pp!!mp! (3(A,DF A>)(B!ped-up! | %91
 F6-)!ped!!ped-up! |!ped! F2!ped! (3(A,DF A>)(c!ped-up! |!<(! (B2)!ped! A2) F2!<)!!ped-up! | %94
"^rit."!mf!!ped! !>!E2!ped!!>(! (3(GA_B) C2!ped-up!!>)!!ped-up! | %95
!>(!!ped! ([G,A,E]4!ped! [G,A,C]2)!>)!!ped-up! |!mp!!ped! [F,A,D]6-!ped!!ped-up! | %97
!ped! [F,A,D]2!ped! z4!ped-up! | %98
!f!!mf!"^poco rit."!ped! !arpeggio![F,A,D]2!ped!"^m.d.""_m.g." (3(DFA!>(! B>)[Bd]!ped-up!!>)!!ped-up! | %99
!ped! [Bdf]2!ped! z4!ped-up! | %100
!f!!ped! !arpeggio![=F,_B,D]2!ped! (3(D=F_B!>(! d>)=f!ped-up!!>)!!ped-up! | %101
!ped! [d=f]2!ped!"^rit." z4!ped-up! | %102
"^a tempo"!mf!!ped! !arpeggio![^F,A,D]2!ped!"^very quick" (3(baf!>(! d>)(A!ped-up!!>)!!ped-up! | %103
!ped! D2)!ped!!mp! (3(BAF D>).A,!ped-up! |!ped! !fermata![F,A,D]6!ped!!ped-up! |] %105
V:4
 D,,4 A,,2 | F,4 A,,2 | (D,,4 A,,2 | F,4 A,,2) | (D,,4 A,,2 | F,4 A,,2) | (D,,4 A,,2 | F,4 A,,2) | %8
 ([B,,,B,,]4 [E,,E,]2) | ([A,,,A,,]4 [A,,=G,]2) | (!arpeggio![D,,A,,F,]4 A,,2) | (F,4 A,,2) | %12
 (D,,4 A,,2 | F,4 A,,2) | (D,,4 A,,2 | F,4 A,,2) | (G,,6 | [A,,,A,,]6) | ([D,,D,]4 A,,2 | %19
 F,4 A,,2) | (D,,4 A,,2 | D,4 A,,2) | (D,,4 A,,2 | F,4 A,,2) | ([B,,,B,,]4 E,,2) | %25
 ([A,,,A,,]4 [A,,G,]2) | (!arpeggio![D,,A,,F,]4 A,,2) | ([D,,D,]4 A,,2) | (D,,4 A,,2 | D,4 A,,2) | %30
 (D,,4 A,,2 | F,4 A,,2) | (G,,6 | [A,,,A,,]6) | [D,,D,]4 A,,2 | [D,,D,]2 z4 || %36
[K:Bb] (B,,2 F,2 B,2 | D2 B,2 F,2) | B,,G,- G,4 | B,,F,- F,4 | B,,F,- F,4- | %41
 [F,,C,F,]2 [D,F,A,C]4 | ([B,,F,]2 [F,B,]2 [B,D]2) | [DF]4 z2 | (D,4 E,D,) | %45
 [G,,G,]4 [A,,A,][B,,B,] | [A,,A,]6 | [G,,G,]6 | [=E,,=E,]6 | [C,,G,,]6 | (F,,C,F,) z z2 | %51
 [F,A,CE]6 | (B,,2 F,2 B,2 | D2 B,2 F,2) | B,,G,- G,4 | B,,F,- F,4 | B,,F,- F,4- | %57
 [F,,C,F,]2 [D,F,A,C]4 | ([B,,F,]2 [F,B,]2 [B,D]2) | [DF]4 z2 | (E,,2 B,,2 E,2 | G,2) z4 | %62
 (=E,,2 G,,2 B,,D, | G,2) z4 | (F,,2 B,,2 D,F, | B,2) z4 | B,,6- | B,,2 z4 | C,2 [F,A,CE]4 | %69
 [F,,C,]2 z4 | F,,6- | F,,2 z4 | [=E,,=E,]3 !>![^C,=E,G,] !>![C,=E,G,]2- | [C,E,G,]6 | z6 | z6 | %76
 z6 | A,,2 z4 | A,,2 z4 | A,,2 z2 !fermata![A,,,A,,]2 ||[K:D] ([D,,D,]4 A,,2 | D,4 A,,2) | %82
 (D,,4 A,,2 | F,4 A,,2) | (D,,4 A,,2 | F,4 A,,2) | ([B,,,B,,]4 [E,,E,]2) | ([A,,,A,,]4 [A,,=G,]2) | %88
 (!arpeggio![D,,A,,F,]4 A,,2) | (F,4 A,,2) | (D,,4 A,,2 | D,4 A,,2) | (D,,4 A,,2 | F,4 A,,2) | %94
 (G,,6 | [A,,,A,,]6) | ([D,,D,]4 A,,2 | D,4 A,,2) | !arpeggio!!>![D,,A,,]6- | [D,,A,,]2 z4 | %100
 !arpeggio![=D,,_B,,]6- | [D,,B,,]2 z4 |!>(! [D,,A,,]6- | [D,,A,,]2 x4!>)! | %104
 D,,2 !fermata![D,,A,,]4 |] %105
V:5
 x6 | x6 | x6 | z2"^rit." ([DF]2 [CE]2) | x6 | x6 | x6 | x6 | x2 (^G,2 [B,D]2) | [CE=G]6 | x6 | %11
 x6 | x6 | x6 | x6 | x6 | x6 | x6 | x6 | x6 | x6 | z4 [A,D]2- | [A,D]2 x4 | [DF]4 D2 | x4 E2- | %25
 E2 z2 [CG]2 | [DF]2 x4 | x6 | x6 | z4 [A,D]2- | [A,D]2 x4 | [DF]4 [A,D]2 | [_B,D]4 =B,2 | x6 | %34
 x6 | x6 ||[K:Bb] x6 | B6 | x6 | x6 | x6 | x6 | z .[d'f'].[d'f'].[bd'].[bd'].[fb] | x6 | x6 | x6 | %46
 x6 | x6 | x6 | x6 | x6 | x6 | x6 | B6 | x6 | x6 | x6 | x6 | z .[d'f'].[d'f'].[bd'].[bd'].[fb] | %59
 x6 | x6 | x6 | x6 | x6 | x6 | x6 | x6 | [^FAc]2 x4 | x6 | x6 | x6 | x6 | x6 | x6 | x6 | x6 | x6 | %77
 x6 | x6 | x6 ||[K:D] x6 | x6 | x6 | x6 | x6 | x6 | x2 (^G,2 [B,D]2) | [CE=G]6 | x6 | x6 | x6 | %91
 z4 x2 | x6 | [DF]4 [A,D]2 | [_B,D]4 =B,2 | x6 | x6 | x6 | x2 (3A,B,D F>F | [DF]2 x4 | %100
 x2 (3_B,D=F _B>d | _B2 x4 | x2 (3(BAF D>)(A, |[I:staff +1] D,2) (3(B,A,F, D,>).A,, | D,2 x4 |] %105
V:6
 x6 | x6 | x6 | x6 | x6 | x6 | x6 | x6 | x6 | x6 | x6 | x6 | x6 | x6 | x6 | x6 | z4 G,,,2 | x6 | %18
 x6 | x6 | x6 | x6 | x6 | x6 | x6 | x6 | x6 | x6 | x6 | x6 | x6 | x6 | z4 G,,,2 | x6 | x6 | x6 || %36
[K:Bb] x6 | x6 | B,,6 | B,,6 | B,,6 | x6 | x6 | x6 | G,,6 | x6 | x6 | x6 | x6 | x6 | x6 | x6 | x6 | %53
 x6 | B,,6 | B,,6 | B,,6 | x6 | x6 | x6 | x6 | x6 | x6 | x6 | x6 | x6 | z2 !>!^F,2 !>!A,2 | %67
 !>!E2 x4 | x6 | x6 | z2 !>![F,_B,]2[I:staff -1] !>![B,=E]2 | !>![_DG]2 x4 | %72
[I:staff +1] z2 [A,,,A,,]4- | [A,,,A,,]6 | x6 | x6 | x6 | x6 | x6 | x6 ||[K:D] x6 | x6 | x6 | x6 | %84
 x6 | x6 | x6 | x6 | x6 | x6 | x6 | x6 | x6 | x6 | z4 G,,,2 | x6 | x6 | D,,6 | x6 | x6 | x6 | x6 | %102
 x6 | x6 | x6 |] %105

